X:1
T:Title
L:1/8
M:8/4
K:F
V:1 treble nm="Viola"
V:1
 D4 F2 E2 F2 G2 E4 |[M:7/4] E2 F2 A2 A2 G2 A4 |[M:8/4] E4 F2 E2 F2 G2 E4 | %3
[M:7/4] c2 B2 A2 A2 G2 A4 | C2 D2 D2 E2 E2 F4 | C2 F2 F2 G2 G2 A4 | C2 D2 E2 F2 G2 A4 | %7
 A2 G2 F2 E2 E2 D4 |] %8

